static/images/animations/paypal.svg

<svg width="16" height="16" viewBox="0 0 16 16" fill="none" xmlns="http://www.w3.org/2000/svg">
<path d="M11.8273 5.05411C11.9712 4.11623 11.8273 3.49098 11.3239 2.91383C10.7725 2.26453 9.76554 2 8.47093 2H4.75489C4.49117 2 4.2754 2.19238 4.22745 2.45691L2.66912 12.3166C2.64514 12.509 2.78899 12.6774 2.98079 12.6774H5.28233L5.11451 13.6874C5.09053 13.8557 5.21041 14 5.4022 14H7.34413C7.58387 14 7.77567 13.8317 7.79964 13.6152L8.20721 11.0661C8.23118 10.8497 8.44695 10.6814 8.66272 10.6814H8.95041C10.8204 10.6814 12.3068 9.91182 12.7384 7.6994C12.9062 6.78557 12.8343 5.99198 12.3548 5.46293C12.2109 5.29459 12.0431 5.17435 11.8273 5.05411Z" fill="#009CDE"/>
<path d="M11.8273 5.05411C11.9712 4.11623 11.8273 3.49098 11.3239 2.91383C10.7725 2.26453 9.76554 2 8.47093 2H4.75489C4.49117 2 4.2754 2.19238 4.22745 2.45691L2.66912 12.3166C2.64514 12.509 2.78899 12.6774 2.98079 12.6774H5.28233L5.83374 9.11824C5.88169 8.85371 6.09746 8.66132 6.36118 8.66132H7.464C9.6217 8.66132 11.2999 7.79559 11.7794 5.24649C11.8034 5.1984 11.8034 5.12625 11.8273 5.05411Z" fill="#012169"/>
<path d="M6.48105 5.07816C6.50502 4.90982 6.72079 4.69339 6.93656 4.69339H9.86144C10.1971 4.69339 10.5327 4.71743 10.8204 4.76553C11.0841 4.81363 11.5636 4.93387 11.8034 5.07816C11.9472 4.14028 11.8034 3.51503 11.2999 2.93788C10.7725 2.26453 9.76554 2 8.47092 2H4.75489C4.49117 2 4.2754 2.19238 4.22745 2.45691L2.66912 12.3166C2.64514 12.509 2.78899 12.6774 2.98079 12.6774H5.28233L6.48105 5.07816Z" fill="#003087"/>
</svg>

<svg xmlns="http://www.w3.org/2000/svg" width="16" height="16" fill="none"><path fill="#009CDE" d="M11.827 5.054c.144-.938 0-1.563-.503-2.14C10.773 2.264 9.766 2 8.47 2H4.755a.54.54 0 0 0-.528.457l-1.558 9.86c-.024.192.12.36.312.36h2.301l-.167 1.01c-.024.169.095.313.287.313h1.942c.24 0 .432-.168.456-.385l.407-2.549c.024-.216.24-.385.456-.385h.287c1.87 0 3.357-.77 3.788-2.982.168-.913.096-1.707-.383-2.236a1.823 1.823 0 0 0-.528-.409Z"/><path fill="#012169" d="M11.827 5.054c.144-.938 0-1.563-.503-2.14C10.773 2.264 9.766 2 8.47 2H4.755a.54.54 0 0 0-.528.457l-1.558 9.86c-.024.192.12.36.312.36h2.301l.552-3.559a.54.54 0 0 1 .527-.457h1.103c2.158 0 3.836-.865 4.315-3.415.024-.048.024-.12.048-.192Z"/><path fill="#003087" d="M6.481 5.078c.024-.168.24-.385.456-.385H9.86c.336 0 .672.024.96.073.263.048.743.168.982.312.144-.938 0-1.563-.503-2.14C10.773 2.265 9.766 2 8.47 2H4.756a.54.54 0 0 0-.528.457l-1.558 9.86c-.024.192.12.36.312.36h2.301l1.199-7.599Z"/></svg>
